X:1
T:D minor Samuel Holyoke, 1803
T:Jeremy Belknap, 1795; Based on Nahum Tate and Nicholas Brady, 1698; and James Merrick, 1765   (Psalm 64)      88. 88. (L. M.)
T:Canada Treble-Tenor-Bass from The Columbian Repository , 1803; Counter written by B. C. Johnston, 2016.
%%score [ 1 2 ( 3 4 ) 5 ]
L:1/8
Q:1/4=110
M:4/4
K:F
V:1 treble nm="Tr." snm="Tr."
V:2 treble nm="C." snm="C."
V:3 treble-8 nm="T." snm="T."
V:4 treble-8 
V:5 bass nm="B." snm="B."
V:1
"^1. O   Lord, to our re– quest   give      ear,    And  free our souls from      hos    –    tile        fear;   For    crafty men, of    im–pious mind,  Their powers in secret" D2 | %1
 F2 D2 A2 d2 | AG FE F3 G | A2 d2 d2 f2 | ed ^c=B A3 D | F2 D2 A2 d2 | AG FE F3 G | A2 ^c2 d2 f2 | %8
"^1. league  com – bined:  With factious rage their plots devise,  And vent their malice, mixed with lies,   And  vent  their  malice,  mixed  with  lies." ed ^c=B A2 z A | %9
 d2 c2 f2 f2 | e2 d2 e3 e | f2 f2 e2 f2 | e2 ed ^c3 c | d2 ^c2 (d =c2) B | A4 ^c4 | d8 |] %16
V:2
"^2. Behold the slaughter-breathing throng,  Whet like a sword their threatening tongue   And bend their bows, to shoot their darts,  Against the men of" F2 | %1
 A2 F2 F2 A2 | cB AG F3 E | A2 BA B2 Ad | ^c=B cB A3 F | A2 F2 F2 A2 | AG AG F3 c | A2 G2 F2 D2 | %8
"^2. up    –    right   hearts,   In works of mischief they agree,   And  vainly  think  that  none  shall  see,    And   vainly    think     that   none  shall  see." ^CD E^G A2 z A | %9
 F2 E2 F2 F2 | G2 =B2 c3 A | A2 A2 A2 A2 | ^c2 c=B c3 A | A2 G2 FG FG | F4 E4 | D8 |] %16
V:3
"^3. But,  wretches,  whither  will  ye  fly?     Behold   the    ar – row       from        on      high!  Descends, andbears upon its wing,  The wrath of heav'n's  of–" F2 | %1
 A2 F2 A2 F2 | FE D^C D3 E | F2 FA B2 Ad | ^c=B A^G A3 F | A2 F2 A2 F2 | FE D^C D3 E | %7
 F2 G2 F2 d2 | %8
"^3. –fen  –  ded  King!  Your slanders on yourselves shall fall,  Hated, despised and shunned by all,     Hated,    despised    and   shunned  by   all." ^c=B A^G A2 z E | %9
 F2 G2 A2 A2 | G2 =B2 c3 ^c | d2 d2 ^c2 d2 | ^c2 c=B A3 A | A2 G2 FG AG | F4 E4 | D8 |] %16
V:4
 x2 | x8 | x8 | x8 | x8 | x8 | x8 | x8 | x8 | x8 | x2 G2 G3 A | A2 A2 A2 A2 | A3 ^G x3 x | x8 | %14
 x8 | x8 |] %16
V:5
"^4. The world shall then God's power confess,  His  wisdom,  love and righteousness;  And men shall see, with rever'nd thought, The wonders that his" D,2 | %1
 D,2 D,2 F,2 D,2 | A,2 A,,2 D,3 C, | F,2 D,2 B,2 D,2 | E,2 E,2 A,,3 D, | D,2 D,2 F,2 D,2 | %6
 A,2 A,,2 D,3 C, | F,2 E,2 D,2 D,2 | %8
"^4. hand hath wrought,  While all shall own his dealings just,  The righteous in his name shall trust,  The  righteous   in  his  name  shall   trust." E,2 E,2 A,,2 z ^C, | %9
 D,2 E,2 F,2 F,2 | %10
"^__________________________________________________________\nEdited by B. C. Johnston, 2016\n   1. Measures 2 and 6, \nTenor\n: third note changed from C to A.\n   2. Measure 4, \nBass\n: third note changed from A to B.\n   3. Counter written." C2 G,2 C3 A, | %11
 D2 D2 A,2 D,2 | E,2 E,2 A,3 G, | F,2 E,2 D,E, F,G, | A,4 A,,4 | D,8 |] %16

